!!!COM: Robert Schumann
!!!CNT: Deutscher
!!!TXO: Deutsche 
!!!OTL: Die Rose, die Lilie, die Taube
!!!OPR: Dichterliebe
!!!OPS: Opus 48
!!!ONM: No. 3
!!!LYR: Heine
!!!ENC: Brian Bice
!!!YOR: Sa2mtliche Lieder, vol. 1, C.F. Peters
!!!ODT: 1840/
!!NB: Vocal melody and text only encoded.
**kern	**silbe
*clefG2	*
*k[f#c#]	*
*M2/4	*
=0	=0
4..r	.
{16a	{Die
=1	=1
8dd	Ro-
16cc#	-se,
16cc#	die
8b	Li-
16cc#	-lie,
16cc#	die
=2	=2
8dd	Tau-
16cc#	-be,
16cc#	die
8b	Son-
16cc#}	-ne,}
{16cc#	{die
=3	=3
8dd	liebt'
16cc#	ich
16cc#	einst
8b	al-
16a	-le
16a	in
=4	=4
8.g#	Lie-
16f#	-bes-
(16f#	-won-
16e)	|
16e}	-ne.}
{16a	{Ich
=5	=5
8dd	lieb'
16cc#	sie
16cc#	nicht
8b	mehr,
16r	.
16cc#	ich
=6	=6
8dd	lie-
16cc#	-be
16cc#	al-
8b	-lei-
16cc#}	-ne}
{16cc#	{die
=7	=7
8dd	Klei-
16cc#	-ne,
16cc#	die
8b	Fei-
16a	-ne,
16a	die
=8	=8
8g	Rei-
16f#	-ne,
16f#	die
(16f#	Ei-
16e)	|
16e}	-ne;}
{16e	{sie
=9	=9
8e	sel-
8f#	-ber,
8.e	al-
16f#	-ler
=10	=10
8.g	Lie-
16a	-be
(16g	Won-
16f#)	|
16f#}	-ne,}
{16a	{ist
=11	=11
8a	Ro-
16b	-se
16b	und
8ccn	Li-
16ee	-lie
16ee	und
=12	=12
8dd	Tau-
16a	-be
16a	und
(16ccn	Son-
16b)	|
16b}	-ne,}
{16b	{ich
=13	=13
8b	lie-
16b	-be
16b	al-
(16b	-lei-
16ee)	|
16ee	-ne
16ee	die
=14	=14
(16ee	Klei-
16a)	|
16a	-ne,
16a	die
8a	Fei-
16dd}	-ne,}
{16dd	{die
=15	=15
8g	Rei-
16b	-ne,
16b	die
(16a	Ei-
16g)	|
16f#	-ne,
16f#	die
=16	=16
[4.b	Ei-
16b]	|
16a	|
=17	=17
8d}	-ne!}
8r	.
4r	.
*-	*-
